X:1
T:Title
%%score ( 1 2 ) { 3 | 4 }
L:1/8
Q:1/4=95
M:6/8
K:F
V:1 treble nm="Grand Piano, Soprano"
V:2 treble 
V:3 bass nm="Choir Pad, Open the Windows of Heaven"
V:4 bass 
V:1
 F [FA]2 [FA] [FB]2 | [FB] [Fc]2 [Cc] [B,D]2 | [DB] [CA]2 [FA]AG | [CF] [EG]2- [EG]2- [EG]/ z/ | %4
w: By~Ira~Orwig~Hoffman * * *||||
 F [FA]2 [FA] [FB]2 | [FB] [Fc]2 [Cc] [B,D]2 | [DB] [CA]2 [CF] [EG]2 | %7
w: |||
 [CE] [CF]2- [CF]2- [CF]/ z/ | z [Fc][Fc] [Fc][Fc][FA] | [FG]FC C C2 | CC[CF] [FG][FA][FG] | %11
w: ||||
 FG-[EG-] [EG-][E-G]>E | z [Fc][Fc] [Fc][Fc][FA] | [FG]FF [FB] [Fd]2 | [Gd][Fc][GB] [FA] [FA]2 | %15
w: ||||
 [EG] F2- F3- | F3 z3 |] %17
w: ||
V:2
 x6 | x6 | z3 z C2 | x6 | x6 | x6 | x6 | x6 | x6 | x6 | x6 | z .E2 z3 | x6 | x6 | x6 | x6 | x6 |] %17
V:3
 A, C2 C B,2 | B, F,2 F, F,2 | G, F,2[K:treble] CCB, | A, C2- C2- C/ z/ | A, C2 C[K:bass] B,2 | %5
 B, F,2 F, F,2 | G, F,2 A, C2 | B, A,2- A,2- A,/ z/ | z A,A, A,A,C | B,A,A, A, A,2 | A,A,A, B,CB, | %11
 A,[K:treble]CC C C2 | z A,[K:bass]A, A,A,C | B,A,A, B, B,2 | _A,=A,C C C2 | B, A,2- A,3- | %16
 A,3 z3 |] %17
V:4
 F, F,2 F, D,2 | D, A,,2 A,, B,,2 | G,, C,2 C, C,2 | C, C,2- C,2- C,/ z/ | F, F,2 F, D,2 | %5
 D, A,,2 A,, B,,2 | G,, C,2 C, C,2 | C, F,2- F,2- F,/ z/ | z F,F, F,F,F, | F,F,F, F, F,2 | %10
 F,F,F, F,F,F, | F,C,C, C, C,2 | z F,F, F,F,F, | F,F,F, D, B,,2 | =B,,C,C, C, C,2 | %15
 C, F,,2- F,,3- | F,,3 z3 |] %17

